svgs/google_slides.svg

<svg width="24" height="24" viewBox="0 0 24 24" fill="none" xmlns="http://www.w3.org/2000/svg">
<path d="M15 12.9748H9V16.9748H15V12.9748Z" fill="black"/>
<path fill-rule="evenodd" clip-rule="evenodd" d="M6 2H14L20 8V20C20 21.1 19.1 22 18 22H5.99C4.89 22 4 21.1 4 20L4.01 4C4.01 2.9 4.9 2 6 2ZM13 3.5V9H18.5L13 3.5ZM7.5 11.4748H16.5V18.4748H7.5V11.4748Z" fill="black"/>
</svg>

<svg xmlns="http://www.w3.org/2000/svg" width="24" height="24" fill="none" viewBox="0 0 24 24"><path fill="#000" d="M15 12.975H9v4h6v-4"/><path fill="#000" fill-rule="evenodd" d="M6 2h8l6 6v12c0 1.1-.9 2-2 2H5.99C4.89 22 4 21.1 4 20l.01-16c0-1.1.89-2 1.99-2m7 1.5V9h5.5zm-5.5 7.975h9v7h-9v-7" clip-rule="evenodd"/></svg>
